X:1
T:When We All Get to Heaven
T:When We All Get to Heaven
T:Emily Devine Wilson
T:Eliza Edmunds Stites Hewitt, 1898
T:Public Domain Courtesy of the Cyber Hymnal™
C:Emily Devine Wilson
Z:Public Domain
Z:Courtesy of the Cyber Hymnal™
%%score ( 1 2 ) ( 3 4 )
L:1/8
Q:1/4=113
M:4/4
K:C
V:1 treble 
V:2 treble 
V:3 bass 
V:4 bass 
V:1
 [EG]2 [EG]2 [EG]2 [Ec]2 | ([CE][DF]) ([EG][FA]) [EG]2 [CE]2 | [DF]2 [DF]2 ([DF][CE]) ([B,D]C) | %3
w: 1.~Sing the wond- rous|love * of * Je- sus,|Sing His mer- * cy *|
w: 2.~While we walk the|pil- * grim * path- way,|Clouds will o- * ver- *|
w: 3.~Let us then be|true * and * faith- ful,|Trus- ting, serv- * ing *|
w: 4.~On- ward to the|prize * be- * fore us!|Soon His beau- * ty *|
 [DF]2 [B,G]2 [CE]4 | [EG]2 [Ec]2 [Ec]2 [EG]2 | [FA]2 [Fc]2 [Fc]2 [^DA]2 | %6
w: and His grace.|In the man- sions|bright and bless- èd|
w: spread the sky;|But when tra- veling|days are o- ver,|
w: ev- ery day;|Just one glimpse of|Him in glo- ry|
w: we’ll be- hold;|Soon the pear- ly|gates will o- pen;|
 [EG]2 [Gc]2 [Fc]>[FB] [FA]>[FB] | [Ec]6 ||"^Refrain" E>G | [Ec]6 [GB]>[FA] | %10
w: He’ll pre- pare for us a|place.|||
w: Not a sha- dow, not a|sigh.|||
w: Will the toils of life re-|pay.|||
w: We shall tread the streets of|gold.|||
 [EG]4 [CE]2 [DG]>[DG] | [Cc]2 [Ec]>[Ec] [^Fc]>[Fc] [FB]>[Fc] | [Fd]6 G>[Fc] | [Ge]6 [Ec]2 | %14
w: ||||
w: ||||
w: ||||
w: ||||
 [Fc]4 [FA]2 [^DA]2 | [EG]2 [Ec]2 [Fc]>[FB] [FA]>[FB] | [Ec]8 |] %17
w: |||
w: |||
w: |||
w: |||
V:2
 x8 | x8 | x8 | x8 | x8 | x8 | x8 | x6 || E>G | x8 | x8 | x8 | x6 G3/2 x/ | x8 | x8 | x8 | x8 |] %17
V:3
 [C,C]2 [C,C]2 [C,C]2 [C,G,]2 | [C,G,]2 [C,C]2 [C,C]2 [C,G,]2 | %2
w: ~ ~ ~ ~|~ ~ ~ ~|
 [G,,B,]2 [G,,B,]2 [G,,G,]2 [G,,G,]2 | [B,,G,]2 [G,,G,]2 [C,G,]4 | [C,C]2 [C,G,]2 [C,G,]2 [C,C]2 | %5
w: ~ ~ ~ ~|~ ~ ~|~ ~ ~ ~|
 [F,C]2 [F,A,]2 [F,A,]2 [^F,C]2 | [G,C]2 [E,C]2 [F,A,]>[F,A,] G,>G, | [C,G,]6 || E,>G, | %9
w: ~ ~ ~ ~|~ ~ ~ ~ ~ ~|~|When we|
 [C,G,]6 [C,A,]>[C,B,] | [C,C]4 [C,G,]2 [B,,G,]>[B,,G,] | %11
w: all get to|Hea- ven, What a|
 [A,,A,]2 [A,,A,]>[A,,A,] [D,A,]>[D,A,] [D,A,]>[D,A,] | [G,B,]6 G,>[G,A,] | [C,C]6 [C,_B,]2 | %14
w: day of re- joic- ing that will|be! When we|all see|
 [F,A,]4 [F,C]2 [^F,C]2 | [G,C]2 [G,C]2 [G,D]>[G,D] [G,D]>[G,D] | [C,G,C]8 |] %17
w: Je- sus, We’ll|sing and shout the vic- to-|ry!|
V:4
 x8 | x8 | x8 | x8 | x8 | x8 | x8 | x6 || E,>G, | x8 | x8 | x8 | x6 G,3/2 x/ | x8 | x8 | x8 | x8 |] %17

